svgs/light/right-from-bracket.svg

<svg xmlns="http://www.w3.org/2000/svg" viewBox="0 0 512 512"><!-- Font Awesome Pro 6.0.0-alpha2 by @fontawesome - https://fontawesome.com License - https://fontawesome.com/license (Commercial License) --><path d="M176 448H80C53.531 448 32 426.469 32 400V112C32 85.531 53.531 64 80 64H176C184.844 64 192 56.844 192 48S184.844 32 176 32H80C35.875 32 0 67.875 0 112V400C0 444.125 35.875 480 80 480H176C184.844 480 192 472.844 192 464S184.844 448 176 448ZM502.625 233.375L374.625 105.375C365.469 96.219 351.719 93.469 339.75 98.438C327.797 103.375 320 115.062 320 128V192H176C149.492 192 128 213.492 128 240V272C128 298.508 149.492 320 176 320H320V384C320 396.938 327.797 408.625 339.75 413.562C351.719 418.531 365.469 415.781 374.625 406.625L502.625 278.625C508.875 272.375 512 264.188 512 256S508.875 239.625 502.625 233.375ZM352 384V288H176C167.176 288 160 280.82 160 272V240C160 231.18 167.176 224 176 224H352V192L351.996 128L479.996 256L352 384Z"/></svg>

<svg xmlns="http://www.w3.org/2000/svg" viewBox="0 0 512 512"><!--! Font Awesome Pro 6.0.0-alpha3 by @fontawesome - https://fontawesome.com License - https://fontawesome.com/license (Commercial License) --><path d="M176 448h-96C53.53 448 32 426.5 32 400v-288C32 85.53 53.53 64 80 64h96C184.8 64 192 56.84 192 48S184.8 32 176 32h-96C35.88 32 0 67.88 0 112v288C0 444.1 35.88 480 80 480h96C184.8 480 192 472.8 192 464S184.8 448 176 448zM502.6 233.4l-128-128c-9.156-9.156-22.91-11.91-34.88-6.938C327.8 103.4 320 115.1 320 128l.0918 63.1L176 192C149.5 192 128 213.5 128 240v32C128 298.5 149.5 320 176 320l144.1-.001L320 384c0 12.94 7.797 24.62 19.75 29.56c11.97 4.969 25.72 2.219 34.88-6.938l128-128C508.9 272.4 512 264.2 512 256S508.9 239.6 502.6 233.4zM352 384V288H176C167.2 288 160 280.8 160 272v-32C160 231.2 167.2 224 176 224H352l-.0039-96l128 128L352 384z"/></svg>
